X:164
T:A mi me gusta la gaita
R:Xota
C:Tradicional
S:Msica Tradicional Asturiana, (C) Tello & Tito. Asturies, 2001.
S:http://pagina.de/MusTradAst <telloytito@asturies.org>
A:Asturies
Z:Les cuarenta principales
M:3/8
L:1/8
Q:3/8=72
K:Am
|c>cc|ccc|d2 B|GBB|c2 A|FAA|B2 G-|G3|
|A>AA|AAA|B2 G|EGG|A2 F|DFF|G2 E-|E3|
